X:2267
T:All ye that are to mirth inclined 
C:Quayle, Ballacorey
C:Traditional
O:Isle of Man
Z:Clague collection
B:Kiaull Vannin #267 
N:See also KV269,275,385
M:3/4 
L:1/8 
K:D 
B ee|e2 dc BA|B3B gg|f2 ge de|f3f gg|f2e2 dc|B3A GA|B2 ef gf|e3|| 

